X:042
U: ~ = !turn!
%%topmmargin 3cm
T:Cuckoo Hornpipe
B:Traditional Irish Fiddle Tunes. Randy Miller and Jack Perron.
Z:Transcribed by Ralph Palmer
S:Seamus Tansey
R:Hornpipe
L:1/8
M:C|
K:G
dB ~B2 cBce | d2 ge dBGF | E2 cB AGFG | ((3AGF) GE DGBd |
~B2 GB ADFA | d2 ge dBGF | e2 cB AGFG | ((3ABA) GF G3 z ::
bg ~g2 dgBg | bg ~g2 dgBg | c'a ~a2 eac'a | c'a ~a2 eac'a |
bg ~g2 dgBg | bg ~g2 dgBg | abga fgef | ((3ded) ((3cdc) Bdgd :|]
